X:1
T:James Gibb editions
T:Now God be with us, for the night is closing - Barnby
%%score [ ( 1 2 ) ( 3 4 ) ]
L:1/8
Q:1/4=100
M:4/4
K:Eb
V:1 treble nm="Midi_74"
V:2 treble 
V:3 bass nm="Midi_74"
V:4 bass 
V:1
"^Horeb (11 11. 11 5)""^Catherine Winkworth\n(1827-78)""^Now God be with us, for the night is closing""^Joseph Barnby\n(1838-96)" B4 A2 E2 | %1
 G4 F4 | E2 G2 B2 e2 | e4"^1" d2 || c2 | B4 c4 | B6 A2 | G2 G2 B2 A2 | G4 F4 ||[M:4/4] F4 G2 A2 | %10
 c4 B4 | G3 G =A2 =B2 | c4 !courtesy!_B4 || A4 G2 F2 | (G6 F2) | E8 || A4 G4 |] %17
V:2
 E4 E2 E2 | E4 D4 | E2 E2 E2 E2 | E4 A,2 || C2 | F4 D4 | E4 F4 | B,2 E2 C2 F2 | E4 D4 || %9
[M:4/4] D4 D2 D2 | E4 E4 | D3 D G2 G2 | G4 G4 || E4 E2 E2 | (E4 D4) | E8 || E4 E4 |] %17
V:3
 G,4 A,2 A,2 | B,6 A,2 | G,2 E,2 G,2 G,2 | A,4 A,2 || A,2 | A,4 A,4 | G,4 F,4 | E,2 B,2 C2 C2 | %8
 B,4 B,4 || %9
[M:4/4]"^1 Now God be with us, for the night is closing;\nThe light and darkness are of His disposing,\nAnd 'neath His shadow here to rest we yield us,\nFor He will shield us.\n\n2 Let evil thoughts and spirits flee before us;\nTill morning cometh, watch, O Father, o'er us;\nIn soul and body Thou from harm defend us\nThine angels send us.\n\n3 Let holy thoughts be ours when sleep o'ertakes us;\nOur earliest thoughts be Thine when morning wakes us;\nAll day serve Thee; in all that we are doing \nThy praise pursuing.\n\n4 We have no refuge; none on earth to aid us\nSave Thee, O Father, who Thine own hast made us;\nBut Thy dear Presence will not leave them lonely,\nWho seek Thee only.\n\n5 Father, Thy name be praised, Thy kingdom given,\nThy will be done on earth as 'tis in heaven;\nKeep us in life, forgive our sins, deliver\nUs now and ever\n" B,4 B,2 B,2 | %10
 B,4 B,4 | =B,3 B, C2 D2 | C4 _D4 || C4 B,2 =A,2 | (B,4 A,4) | G,8 || C4 B,4 |] %17
V:4
 E,4 C,2 C,2 | B,,4 B,,4 | C,2 C,2 _D,2 D,2 | C,4 F,2 || E,2 | D,4 B,,4 | C,4 D,4 | %7
 E,2 E,2 A,,2 A,,2 | B,,4 B,,4 ||[M:4/4] A,4 A,2 A,2 | G,4 G,4 | F,3 F, F,2 F,2 | E,4 E,4 || %13
 A,,4 B,,2 C,2 | B,,8 | E,8 || A,,4 E,4 |] %17

